X:1
T:Parce Domine - Menegali
T:James Gibb editions
T:#
%%score { 1 | 2 } 3
L:1/8
Q:1/4=54
M:4/4
K:Bb
V:1 treble-8 nm="Tenor I" snm="T"
V:2 treble-8 
V:3 bass nm="Bass" snm="B"
V:1
"^Joel 2:17" z2"^Parce Domine""^Menegali"!p! d4 B2 | (B2 c)B !fermata!A4 | z2 !>!e4 c2 | %3
w: Par- ce|Do\- * mi- ne,|par- ce|
 (c2 d)c !fermata!B4 |[M:4/4][K:treble-8] d2 e2 d2!<(! ee | d4 d4!<)! |!f! g4 !fermata!g4 | z8 | %8
w: Do\- * mi- ne,|par- ce po- pu- lo|tu- o,|par- ce,||
!p! !fermata!g4 !fermata!^f4 |!mf! d2 d2 e4 | c2 cc d2 d2 |!<(! B2 ee d2 d2!<)! | %12
w: par- ce,|et ne des|hae- re- di- ta- tem,|hae- re- di- ta- tem|
!f! e4 !fermata!e4 |!mf! e2 e2 e2 e2 |!>(! (e6 dc)!>)! | d2 z2 z2!sfz! e2- | ed!>(!cB (A2 B2!>)! | %17
w: tu- am|in per- di- ti-|o\- * *|nem, in|* per- di- ti- o\- *|
 A8) |!pp! !fermata!G8 |] %19
w: |nem.|
V:2
 z2!p! B4 G2 | (G2 A)G !fermata!^F4 | z2 !>!c4 A2 | (A2 B)A !fermata!G4 | %4
w: Par- ce|Do\- * mi- ne,|par- ce|Do\- * mi- ne,|
[M:4/4][K:treble-8] B2 c2 B2 cc | B4 =B4 |!f! c4 !fermata!c4 |!p! c2 c2 B>B B2 | %8
w: par- ce po- pu- lo|tu- o,|par- ce,|par- ce Do- mi- ne,|
 !fermata!B4 !fermata!A4 |!mf! B2 =B2 c4 | A2 AA _B2 B2 |!<(! G2 GG F2 (F!<)!B) | %12
w: par- ce,|et ne des|hae- re- di- ta- tem,|hae- re- di- ta- tem *|
!f! c4 !fermata!c4 |!mf! c2 c2 c2 c2 |!>(! (c6 =BA)!>)! | =B2 z2 z2!sfz! c2- | %16
w: tu- am|in per- di- ti-|o\- * *|nem, in|
 c_BA!>(!G (^F2 G2-!>)! | G2 ^F=E F4) |!pp! !fermata!G8 |] %19
w: * per- di- ti- o\- *||nem.|
V:3
!p! G,4 G,4 | D,3 D, !fermata!D,4 | !>!^F,4 F,4 | D,3 D, !fermata!G,4 | %4
w: Par- ce|Do- mi- ne,|par- ce|Do- mi- ne,|
[M:4/4] G,2 ^F,2 G,2!<(! F,F, | G,4 =F,4!<)! |!f! E,4 !fermata!E,4 |!p! E,2 E,2 D,>D, D,2 | %8
w: par- ce po- pu- lo|tu- o,|par- ce,|par- ce Do- mi- ne,|
 !fermata!^C,4 !fermata!D,4 |!mf! G,2 G,2 =C,4 | F,2 F,F, B,,2 B,,2 |!<(! (E,F,)G,A, B,2!<)! B,2 | %12
w: par- ce,|et ne des|hae- re- di- ta- tem,|hae\- * re- di- ta- tem|
!f! _A,4 !fermata!A,4 | z4!mf! _A,2 G,2 | ^F,2 G,2 G,4 | G,2 !^!G,3 =F,E,D, | (C,4 D,4- | D,8) | %18
w: tu- am|in per-|di- ti- o-|nem, in per- di- ti-|o\- *||
!pp! !fermata!G,,8 |] %19
w: nem.|

